assets/icons/qvision/exposure_plus_2.svg

<svg xmlns="http://www.w3.org/2000/svg" height="24" viewBox="0 0 24 24" width="24"><path d="M0 0h24v24H0zm0 0h24v24H0z" fill="none"/><path d="M16.05 16.29l2.86-3.07c.38-.39.72-.79 1.04-1.18.32-.39.59-.78.82-1.17.23-.39.41-.78.54-1.17.13-.39.19-.79.19-1.18 0-.53-.09-1.02-.27-1.46-.18-.44-.44-.81-.78-1.11-.34-.31-.77-.54-1.26-.71-.51-.16-1.08-.24-1.72-.24-.69 0-1.31.11-1.85.32-.54.21-1 .51-1.36.88-.37.37-.65.8-.84 1.3-.18.47-.27.97-.28 1.5h2.14c.01-.31.05-.6.13-.87.09-.29.23-.54.4-.75.18-.21.41-.37.68-.49.27-.12.6-.18.96-.18.31 0 .58.05.81.15.23.1.43.25.59.43.16.18.28.4.37.65.08.25.13.52.13.81 0 .22-.03.43-.08.65-.06.22-.15.45-.29.7-.14.25-.32.53-.56.83-.23.3-.52.65-.88 1.03l-4.17 4.55V18H22v-1.71h-5.95zM8 7H6v4H2v2h4v4h2v-4h4v-2H8V7z"/></svg>

<svg width="24" height="24" viewBox="0 0 24 24" fill="none" xmlns="http://www.w3.org/2000/svg">
<g clip-path="url(#clip0_147_3389)">
<path d="M16.05 16.29L18.91 13.22C19.29 12.83 19.63 12.43 19.95 12.04C20.27 11.65 20.54 11.26 20.77 10.87C21 10.48 21.18 10.09 21.31 9.7C21.44 9.31 21.5 8.91 21.5 8.52C21.5 7.99 21.41 7.5 21.23 7.06C21.05 6.62 20.79 6.25 20.45 5.95C20.11 5.64 19.68 5.41 19.19 5.24C18.68 5.08 18.11 5 17.47 5C16.78 5 16.16 5.11 15.62 5.32C15.08 5.53 14.62 5.83 14.26 6.2C13.89 6.57 13.61 7 13.42 7.5C13.24 7.97 13.15 8.47 13.14 9H15.28C15.29 8.69 15.33 8.4 15.41 8.13C15.5 7.84 15.64 7.59 15.81 7.38C15.99 7.17 16.22 7.01 16.49 6.89C16.76 6.77 17.09 6.71 17.45 6.71C17.76 6.71 18.03 6.76 18.26 6.86C18.49 6.96 18.69 7.11 18.85 7.29C19.01 7.47 19.13 7.69 19.22 7.94C19.3 8.19 19.35 8.46 19.35 8.75C19.35 8.97 19.32 9.18 19.27 9.4C19.21 9.62 19.12 9.85 18.98 10.1C18.84 10.35 18.66 10.63 18.42 10.93C18.19 11.23 17.9 11.58 17.54 11.96L13.37 16.51V18H22V16.29H16.05ZM8 7H6V11H2V13H6V17H8V13H12V11H8V7Z" fill="#323232"/>
</g>
<defs>
<clipPath id="clip0_147_3389">
<rect width="24" height="24" fill="white"/>
</clipPath>
</defs>
</svg>
